X: 147
T: Miss Drysdale's Favorite
%R: reel, march
B: Urbani & Liston "A Selection of Scotch, English Irish, and Foreign Airs", Edinburgh 1800, p.57 #1
F: http://www.vwml.org/browse/browse-collections-dance-tune-books/browse-urbani1800
Z: 2014 John Chambers <jc:trillian.mit.edu>
M: C
L: 1/8
K: D
a/g/ |\
faea fdd f/e/ | dfad' c'aa a/g/ |\
faea fdd d'/c'/ | be'c'a d'dd :|
|: A/G/ |\
FAAB/A/ FAAB/A/ | BGAF GEEA/G/ |\
FAAB/A/ FAAB/A/ | BdcA dDD :|
|: a/c'/ |\
d'aab/a/ d'aab/a/ | bgaf gee d'/c'/ |\
bd'ad' gd'fd' | ee'c'a d'dd :|
